X:1
T:Title
%%score { ( 1 3 ) | ( 2 4 5 ) }
L:1/8
M:3/4
K:D
V:1 treble nm="Grand Piano"
V:3 treble 
V:2 bass 
V:4 bass 
V:5 bass 
V:1
 z2 z2[Q:1/4=100] [FA]2 | A2- [EA]2 [DA]2 | A2- [EA]2 [Dd]2 | A2- [FA]2 [EA]2 | [FA]4 [Fd]2 | %5
 e2 z2 [DGB]2 | B2 z2 [A,EG]2 | [A,DF]4 [FA]2 | A2- [EA]2 [DA]2 | A2- [EA]2 [Dd]2 | %10
 A2- [FA]2 [EA]2 | [FA]4 [Fd]2 | [Ec]4 [DB]2 | [Fd]4 [Ec]2 | [A,CA]4 A2 | e2 d2 c2 | B4 A2 | %17
 [Fd]4 [Ac]B | [DFA]4 A2 | e2 d2 c2 | B4 A2 | d2- [Fd]2 cB | A4 d2 | B4 d2 | [DFA]4 [A,DF]2 | %25
 [CA]4 z2 | [DFA]4 [Fd]2 | [GB]4 [Gd]2 |[M:4/4] [Ff]6 [DAd]2 |[M:3/4] F2- [Fd]2 [Gc]2 | %30
[M:2/4] [Fd]4 |] %31
V:2
 z2 z2 D,2 | D2 C2 B,2 | A,2 G,2 F,2 | E,2 D,2 C,2 | D,4 [D,A,]2 | z2[K:treble] d2[K:bass] G,,2 | %6
 z2 A2 A,,2 | D,4 D,2 | D2 C2 B,2 | A,2 G,2 F,2 | E,2 D,2 C,2 | D,4 [D,A,]2 | [E,^G,]4 [E,G,]2 | %13
 [E,^G,]4 [E,G,]2 | A,,4 A,2 | [CG]2 [DF]2 [A,EG]2 | [A,DG]4 [A,CG]2 | z2 A,2 z G | D,4 A,2 | %19
 [CG]2 [DF]2 [A,EG]2 | [A,DG]4 [A,CG]2 | B,2 z2 z2 | z6 | [G,D]4 [G,,B,G]2 | D,4 D,2 | z2 z G z C | %26
 D,4 [D,A,]2 | [D,D]4 [D,B,]2 |[M:4/4] [D,A,]6 F,2 |[M:3/4] A,2 A,2 [A,,A,]2 |[M:2/4] [D,A,]4 |] %31
V:3
 x6 | F2 z2 z2 | F2 z2 z2 | G2 z2 z2 | x6 | [B,G]4 z2 | [CE]4 z2 | x6 | F2 z2 z2 | F2 z2 z2 | %10
 G2 z2 z2 | x6 | x6 | x6 | x6 | x6 | x6 | D2 z2 z2 | x6 | x6 | x6 | G2 z2 z2 | x6 | x6 | x6 | %25
 A,2 z2 [A,CE][GB] | x6 | x6 |[M:4/4] x8 |[M:3/4] [DA]2 z2 z2 |[M:2/4] x4 |] %31
V:4
 x6 | x6 | x6 | x6 | x6 | G,,4[K:treble][K:bass] z2 | A,,4 z2 | x6 | x6 | x6 | x6 | x6 | x6 | x6 | %14
 x6 | A,4 z2 | x6 | D,4 [D,B,]2 | x6 | A,4 z2 | x6 | D,2- [D,-A,]2 [D,-^G,=F]2 | %22
 [D,A,F]4 [F,A,D]2 | x6 | x6 | z2 E,2 z2 | x6 | x6 |[M:4/4] x8 |[M:3/4] x6 |[M:2/4] x4 |] %31
V:5
 x6 | x6 | x6 | x6 | x6 | x2[K:treble] x2[K:bass] x2 | x6 | x6 | x6 | x6 | x6 | x6 | x6 | x6 | x6 | %15
 x6 | x6 | x6 | x6 | x6 | x6 | x6 | x6 | x6 | x6 | A,,4 A,,2 | x6 | x6 |[M:4/4] x8 |[M:3/4] x6 | %30
[M:2/4] x4 |] %31

